X:878
T:Polkett
T:efter Pelle Fors
R:Polka
Z:Björn Ek 2008-12-31
O:Vikbolandet, Östergötland
S:efter Pelle Fors
D:Erik Pekkari - Gubbstöt
B:Låtar efter Pelle Fors
M:2/4
L:1/16
K:D
%
|:AAd2 AAd2|!trill!c2B2 B4|{/B}g2c2 c2Bc|e2d2 dcd2|
AAd2 AAd2  |!trill!c2B2 B4|{/B}g2c2 c2Bc|d2d2 d4 :|
%
|:fff2 ggg2|a2a2 b4|b2c2 c2Bc|e2d2 dcd2|
fff2 ggg2  |a2a2 b4|b2c2 c2Bc|d2d2 d4 :|
%
(:musicend:)

(:music:)
